X:1
L:1/16
M:2/4
K:G
 dc | B2Bc AAB | G2G2G2 AB |{d} cBcd edcB | A2A2A2 dc | BdcB AcBA | G2G2G2 AB | cBAG FGAF | 
 G2B2G2 :: dc | B2gf e2ed | dcBc A2dc | B2gf edcB | A2A2A2 dc | B2gf edcB | dcBc A2dc | BdcB AcBA | 
 G2G2G2 || Bc | d2d2d2g2 | d2d2d2g2 | d2d2 edcB | dcBc A2Bc | d2d2d2g2 | d2d2d2g2 | edcB dcBA | 
 G2[GB]2G2 :|
